X:35
T:Loch Ness
T:aka - Sandy is My Darling
R:strathspey or reel
% for strathspey set more dotted rhythms would be added
% in Cape Breton generally played as a reel
C:traditional
O:18th century Scottish
B:Bremner's Collections, 1757
D:David Greenberg/Puirt a Baroque - Kinloch Fantasy (as a reel)
N:melodic code 11H7b4 3b7bL7bL3b (1174 3773)
Z:Paul Stewart Cranford (P.S.C.), <http://www.cranfordpub.com>
L:1/8
M:C|
K:Aminor
A|A/A/A a2 gede|c(GG)A GAcG|A/A/A a2 gede|cABG A/A/A A:|
|:B|A>Bcd e>dce|G/G/G GE c(GG)c|A>Bcd egde|cABG A/A/A A:|
